proprietary/assets/icons/vrijetijd-en-school/rolkoffer.svg

<svg height="64" viewBox="0 0 64 64" width="64" xmlns="http://www.w3.org/2000/svg"><path d="m0 0h64v64h-64z" fill="none"/><path d="m20 55.411v2.589c0 1.1046.8954 2 2 2s2-.8954 2-2v-2h-1c-1.0612 0-2.0726-.2122-3-.589z"/><path d="m40 56v2c0 1.1046.8954 2 2 2s2-.8954 2-2v-2.589c-.9274.3768-1.9388.589-3 .589z"/><path d="m28 8h8v9h3v-9.5c0-2.4814-2.0186-4.5-4.5-4.5h-5c-2.4814 0-4.5 2.0186-4.5 4.5v9.5h3z"/><path d="m41 19h-18c-3.3137 0-6 2.6863-6 6v23c0 3.3137 2.6863 6 6 6h18c3.3137 0 6-2.6863 6-6v-23c0-3.3137-2.6863-6-6-6zm-14.8897 15.5024-6.0013-3.0007 3.8897-7.7794 4.112-.7223 1.8893 3.723z"/></svg>

<?xml version="1.0" encoding="utf-8"?>
<!-- Generator: Adobe Illustrator 17.1.0, SVG Export Plug-In . SVG Version: 6.00 Build 0)  -->
<svg version="1.2" baseProfile="tiny" xmlns="http://www.w3.org/2000/svg" xmlns:xlink="http://www.w3.org/1999/xlink" x="0px"
	 y="0px" width="64px" height="64px" viewBox="0 0 64 64" xml:space="preserve">
<g id="Box">
	<rect fill="none" width="64" height="64"/>
</g>
<g id="Icon">
	<g>
		<path d="M20,55.411V58c0,1.1046,0.8954,2,2,2s2-0.8954,2-2v-2h-1C21.9388,56,20.9274,55.7878,20,55.411z"/>
		<path d="M40,56v2c0,1.1046,0.8954,2,2,2s2-0.8954,2-2v-2.589C43.0726,55.7878,42.0612,56,41,56H40z"/>
		<path d="M28,8h8v9h3V7.5C39,5.0186,36.9814,3,34.5,3h-5C27.0186,3,25,5.0186,25,7.5V17h3V8z"/>
		<path d="M41,19H23c-3.3137,0-6,2.6863-6,6v23c0,3.3137,2.6863,6,6,6h18c3.3137,0,6-2.6863,6-6V25C47,21.6863,44.3137,19,41,19z
			 M26.1103,34.5024l-6.0013-3.0007l3.8897-7.7794L28.1107,23L30,26.723L26.1103,34.5024z"/>
	</g>
</g>
</svg>
